X:204
T:Buhusher Khosid
O:klezmer
M:2/4
L:1/8
Q:1/4=97
K:Am
V:1
E/D/  |:"E" ^C/D/E EE |EA ^G2 |"Dm" ^G3/2 F/E/F/^G/ A/|
^GB/ A/^G/F/E/ D/|"E" ^C/D/E EE |EA ^G2 |^GF/E/ "Dm" D/E/F/D/ |
|1 "E" E3 E/D/:|2 "E" E3 E||"Am" A3/2 B/cc/ c/|cc c2 |
c/d/c B/c/B |~A^G/A/ "E" B2 |^G3/2 A/B(B |B)E B2 |
cB/A/ ^G/A/B/^G/ |"Am" A2 z2 ||"Am" A3/2 B/c(c |c)C c2 |
c/d/c B/c/B |~A^G/A/ "E" B2 |^G3/2 A/B(B |B)E B2 |
cB/A/ ^G/A/B/^G/ |"Am" A2 zE || |:^G3/2 E/^G/B/A/ ^G/|"Dm" F/E/D/ ^C/D/E/F/ D/|
"E" E^G/ B/E^G/ B/|"Am" c/B/A/ ^G/A/B/A |"E" ^G3/2 E/^G/B/A/ ^G/|"Dm" F/E/D/ ^C/D/E/F/ D/|
"E" Ee d/c/B/A/ |1 ^G/A/B/A/ ^G/F/E/D/ :|2 "E" ^G/A/F/^G/ E3/2 D/||^G/A/F/ ^G/Ee ||
V:2          %Akkoorden
z |:z2 [E,2^G,2 B,2]|z2 [E,2^G,2 B,2]|z2 [D,2F,2 A,2]|
z2 [D,2F,2 A,2]|z2 [E,2^G,2 B,2]|z2 [E,2^G,2 B,2]|z2 [D,2F,2 A,2]|
|1 z2 [E,2^G,2 B,2]:|2 z2 [E,2^G,2 B,2]||z2 [A,2C,2 E,2]|z2 [A,2C,2 E,2]|
z2 [A,2C,2 E,2]|z2 [E,2^G,2 B,2]|z2 [E,2^G,2 B,2]|z2 [E,2^G,2 B,2]|
z2 [E,2^G,2 B,2]|z2 [A,2C,2 E,2]||z2 [A,2C,2 E,2]|z2 [A,2C,2 E,2]|
z2 [A,2C,2 E,2]|z2 [E,2^G,2 B,2]|z2 [E,2^G,2 B,2]|z2 [E,2^G,2 B,2]|
z2 [E,2^G,2 B,2]|z2 [A,2C,2 E,2]|| |:z2 [E,2^G,2 B,2]|z2 [D,2F,2 A,2]|
z2 [E,2^G,2 B,2]|z2 [A,2C,2 E,2]|z2 [E,2^G,2 B,2]|z2 [D,2F,2 A,2]|
z2 [E,2^G,2 B,2]|1 z2 [E,2^G,2 B,2]:|2 z2 [E,2^G,2 B,2]||z2 [E,2^G,2 B,2]||





